X:1
T:Kiseijuu OP - Sei no Kakuritsu (Let me hear)
T:Parasyte OP - Let me hear
T:Original artists: Fear, and Loathing in Las Vegas Arranged by F.B. Piano Anime Transcribed by VenomousRose 
C:Original artists Fear, and Loathing in Las Vegas
%%score { 1 | 2 }
L:1/8
Q:1/4=96
M:4/4
K:A
V:1 treble nm="Piano" snm="Pno."
V:2 bass 
V:1
!mf! (F/F/G/A/- | AG F/E F2-) F/ (F/GA/- | AG F/EF3/2E C/EE/-) | E2 (C/E E2- E/ C/EE/- | %4
 EC F/EE3/2C)!<(! ([Ff]/[Gg][Aca]/-!<)! |!f! [Aca]2 [Ff]/[cc'] [Aca]2-) [Aca]/ ([Ff]/[Gg][Aca]/- | %6
 [Aca][Ff] [Aca]/[Bb][Aca]3/2[Ff]) ([Ff]/[Ee][FAf]/- | %7
 [FAf]2 [Ff]/[Ee] [FAf]2-) [FAf]/ ([FAf]/[Ee][FAf]/- | [FAf]2!<(! [Aa]2 [Aea]2 [Begb][cc'])!<)! | %9
!ff! (!>![Aca]/[Gg]/[Ee]/[Cc]/ [Ee]/[Ff]/!>![Aa]/[Gg]/ [Ee]/!>![Bb]/[Aa]/[Gg]/ !>![Aa]/[Gg]/[Ee]/[Ff]/) | %10
 (!>![Aa]/[Gg]/[Ee]/[Cc]/ [Ee]/[Ff]/!>![Aa]/[Gg]/ [Ee]/!>![Bb]/[Aa]/[Gg]/ !>![Aa]/[Gg]/[Ee]/[Ff]/) | %11
 (!>![Aa]/[Gg]/[Ee]/[Cc]/ [Ee]/[Ff]/!>![Aa]/[Gg]/ [Ee]/!>![Bb]/[Aa]/[Gg]/ !>![Aa]/[Gg]/[Ee]/[Ff]/) | %12
[M:3/4] (!>![Aa]/[Gg]/[Ee]/[Cc]/ [Ee]/[Ff]/!>![Aa]/[Gg]/ [Ee]/!>![Bb]/[Aa]) | %13
[M:3/8]!>(! ([Ff][Ff]/[Gg]!>)!!f![Acfa]/- | %14
[M:4/4] [Acfa][Gg] [Ff]/[Ee][FAcf]/-) [FAcf]2 ([FAcf]/[Gg][Acfa]/- | %15
 [Acfa][Gg] [Ff]/[Ee][FAcf]3/2[Ee]) ([Cc]/[Ee][EAe]/- | %16
 [EAe]2 [Cc]/[Ee][EAe]/-) [EAe]2 ([Cc]/[Ee][EAe]/- | %17
 [EAe][Cc] [Ff]/[Ee][EGBe]3/2[Cc]) ([Ff]/[Gg][Acfa]/- | %18
 [Acfa]2 [Ff]/[cc'][Acfa]/-) [Acfa]2 ([Ff]/[Gg][Adfa]/- | %19
 [Adfa][Ff] [Adfa]/[Bb][cc']/- [cc']3 [Adfa]-) | %20
 [Adfa]([Acea][eae'][ff'] [eac'e']3/2[Aca]3/2[cc'] | %21
 [Begb]3/2[G,B,EG][Aa]/[Gg]!>(! [Bc=fb]2 [cc']2)!>)! |!mf! z (FFE F3/2F3/2A | G>F E) z (g>f e[Ee] | %24
!<(! [FAdf]3/2[Ee]3/2[Aa]) [GBeg]2 z2!<)! | %25
!ff! (!>![eae']3/2[F,A,DF]3/2[FAdf] [egbe']3/2[dgbd']3/2[cc'] | %26
 [Bcfb]3/2[Acea]>[Bb] [ceac']3) z/ ([Ff]/[Gg]/ | [Adfa]3/2[Bb]3/2[cc'] [Begb][EGBe][ee'][dd'] | %28
 [dfad']3/2 [cfc']2 z/ [Bcb]2 [cc'][Acea]) | z ([cc']/[dd']/ [eac'e']2 [GBeg]3/2[Aa]3/2[ff'] | %30
 [eac'e']3/2[dfad']3/2[cc'] [Bcb]3/2[cc']3/2[dd']) | %31
 [cec']3/2[F,A,DF]3/2[FAdf] [egbe']3/2[GBeg]3/2[Aa] | [fad'f']3/2 [eae']4 z/ z2 | %33
 z/!mp! e/a/!>!e'/ e/a/!>!e'/e/ !>!e'/e/a/!>!d'/ e/a/!>!c'/e/ | %34
 (!>!b/e/g/!>!a/ e/a/!>!b/e/ !>!c'/e/a/!>!c'/ e/a/!>!b/g/) | %35
 (!>!a/e/a/!>!b/ e/a/!>!c'/e/ !>!b/e/g/a/ !>!e'/e/!>!d'/e/) | %36
 (!>!d'/e/a/!>!c'/ e/a/!>!c'/e/ !>!b/e/a/!>!c'/ e/a/!>!a/e/) | %37
 (!>!a/e/!>!c'/!>!d'/ !>!e'/e/c'/e'/ !>!g/e/g/!>!a/ e/a/!>!f'/e/) | %38
 (!>!e'/e/a/!>!d'/ e/a/!>!c'/e/ !>!b/e/a/!>!c'/ e/c'/!>!d'/e/) | %39
!mf! (!>!c'/e/g/a/ e/a/!>!e'/e/ !>!e'/e/g/a/ e/a/!>!e'/e/) | %40
!<(! (!>!f'/e/a/!>!e'/ e/a/!>!a'/e/!<)!!f! !>![gc'g']2) z2 | %41
[M:4/4]!ff! !>![eac'e']3/2!>![F,A,DF]3/2-[F,A,DF] (!>![ege']3/2[dd']3/2[cc'] | %42
 [Bcb]3/2[Aca]>[Bb][ceac']/-) [ceac']2 z2 | ([Adfa]3/2[Bb]3/2[cc'] [Begb][EGBe][ee'][dd'] | %44
 [dfad']3/2[cfc']>Bc/ [Bcb]2 [cc'][Acea]-) | [Acea]([cc']/[dd']/ [eac'e']2 [GBeg]3/2[Aa]3/2[ff'] | %46
 [eac'e']3/2[dfad']3/2[cc'] [Bcb]3/2[cc']3/2[dd']) | %47
 [cec']3/2[F,A,DF]3/2[FAdf] [egbe']3/2[GBeg]3/2[Aa] | %48
!>(! [faf']3/2[eae']3/2[Afa] [Bgb]!>)! [cac'][Bgb][Afa] | [Beg]3/2[cfa]3/2[dgb]3/2 [ec']3 z/ | %50
 [cec']8 |] %51
V:2
 z2 |!mp! .F,,/.C,/.F,,/.C,/ .F,,/.C,/.F,,/.C,/ .F,,/.C,/.F,,/.C,/ .F,,/.C,/.F,,/.C,/ | %2
 .F,,/.C,/.F,,/.C,/ .F,,/.C,/.F,,/.C,/ .F,,/.C,/.F,,/.C,/ .E,,/.B,,/.E,,/.B,,/ | %3
 .D,,/.A,,/.D,,/.A,,/ .D,,/.A,,/.D,,/.A,,/ .D,,/.A,,/.D,,/.A,,/ .D,,/.A,,/.D,,/.A,,/ | %4
 .D,,/.A,,/.D,,/.A,,/ .D,,/.A,,/.D,,/.A,,/ .E,,/.B,,/.E,,/.B,,/ .E,,/.B,,/.E,,/.B,,/ | %5
!mf!!ped! F,,/[C,F,]/F,,/[C,F,]/ F,,/[C,F,]/F,,/[C,F,]/!ped-up!!ped! F,,/[C,F,]/F,,/[C,F,]/ F,,/[C,F,]/F,,/[C,F,]/!ped-up! | %6
!ped! F,,/[C,F,]/F,,/[C,F,]/ F,,/[C,F,]/F,,/[C,F,]/!ped-up!!ped! F,,/[C,F,]/F,,/[C,F,]/!ped-up!!ped! E,,/[B,,E,]/E,,/[B,,E,]/!ped-up! | %7
!ped! D,,/[A,,D,]/D,,/[A,,D,]/ D,,/[A,,D,]/D,,/[A,,D,]/!ped-up!!ped! D,,/[A,,D,]/D,,/[A,,D,]/ D,,/[A,,D,]/D,,/[A,,D,]/!ped-up! | %8
!ped! D,,/[A,,D,]/D,,/[A,,D,]/ D,,/[A,,D,]/D,,/[A,,D,]/!ped-up!!ped! E,,/[B,,E,]/E,,/[B,,E,]/!ped-up!!ped! E,,,/E,,/E,,,/4E,,/4E,,,/4E,,/4!ped-up! | %9
!f!!ped! F,,F,,/[C,F,]/ F,,/[C,F,]/F,,/[C,F,]/!ped-up!!ped! F,,/[C,F,]/F,,/[C,F,]/ F,,/[C,F,]/F,,/[C,F,]/!ped-up! | %10
!ped! F,,/[C,F,]/F,,/[C,F,]/ F,,/[C,F,]/F,,/[C,F,]/!ped-up!!ped! F,,/[C,F,]/F,,/[C,F,]/ F,,/[C,F,]/!ped-up!!ped!E,,/[B,,E,]/!ped-up! | %11
!ped! D,,/[A,,D,]/D,,/[A,,D,]/ D,,/[A,,D,]/D,,/[A,,D,]/!ped-up!!ped! D,,/[A,,D,]/D,,/[A,,D,]/ D,,/[A,,D,]/D,,/[A,,D,]/!ped-up! | %12
[M:3/4]!ped! E,,/[B,,E,]/E,,/[B,,E,]/ E,,/[B,,E,]/E,,/[B,,E,]/!ped-up!!ped! E,,/[B,,E,]/[E,,B,,E,]!ped-up! | %13
[M:3/8]!ped! z3!ped-up! | %14
[M:4/4]!ped! !>!F,,!mf!F,,/[C,F,]/ F,,/[C,F,]/F,,/[C,F,]/!ped-up!!ped! F,,/[C,F,]/F,,/[C,F,]/ F,,/[C,F,]/F,,/[C,F,]/!ped-up! | %15
!ped! F,,/[C,F,]/F,,/[C,F,]/ F,,/[C,F,]/F,,/[C,F,]/!ped-up!!ped! F,,/[C,F,]/F,,/[C,F,]/ E,,/[B,,E,]/E,,/[B,,E,]/!ped-up! | %16
!ped! D,,/[A,,D,]/D,,/[A,,D,]/ D,,/[A,,D,]/D,,/[A,,D,]/!ped-up!!ped! D,,/[A,,D,]/D,,/[A,,D,]/ D,,/[A,,D,]/D,,/[A,,D,]/!ped-up! | %17
!ped! D,,/[A,,D,]/D,,/[A,,D,]/ D,,/[A,,D,]/D,,/[A,,D,]/!ped-up!!ped! E,,/[B,,E,]/E,,/[B,,E,]/ E,,/[B,,E,]/E,,/[B,,E,]/!ped-up! | %18
!f!!ped! !>!F,,F,,/[C,A,]/ F,,/[C,A,]/F,,/[C,A,]/!ped-up!!ped! F,,/[C,A,]/F,,/[C,A,]/ F,,/[C,A,]/F,,/[C,A,]/!ped-up! | %19
!ped! !>!D,,D,,/[A,,F,]/ D,,/[A,,F,]/D,,/[A,,F,]/!ped-up!!ped! D,,/[A,,F,]/D,,/[A,,F,]/ D,,/[A,,F,]/D,,/[A,,F,]/!ped-up! | %20
!ped! !>!A,,A,,/[E,C]/ A,,/[E,C]/A,,/[E,C]/!ped-up!!ped! A,,/[E,C]/A,,/[E,C]/ A,,/[E,C]/A,,/[E,C]/!ped-up! | %21
!ped! !>!E,,E,,<[G,,B,,E,][E,G,B,E]!ped-up!!ped! (!>!C,,C,,/=F,,/ G,,/C,/^D,/=F,/)!ped-up! | %22
!ped! (D,,/[A,,D,]/D,,/[A,,D,]/ D,,/[A,,D,]/D,,/[A,,D,]/ D,,/[A,,D,]/D,,/[A,,D,]/ D,,/[A,,D,]/D,,/)[A,,D,]/!ped-up! | %23
!ped! (E,,/[B,,E,]/E,,/[B,,E,]/ E,,/[B,,E,]/E,,/[B,,E,]/ E,,/[B,,E,]/E,,/[B,,E,]/ E,,/[B,,E,]/E,,/)[B,,E,]/!ped-up! | %24
!ped! D,,/[A,,D,]/D,,/[A,,D,]/ D,,/[A,,D,]/D,,/[A,,D,]/!ped-up!!ped! (E,,/[B,,E,]/E,,/[B,,E,]/ E,,/)[B,,E,]/E,,/[B,,E,]/!ped-up! | %25
!f!!f!!f!!f!!f!!ped! !>!D,,D,,/[A,,D,]D,,/[A,,D,]/D,,/!ped-up!!f!!ped-up!!ped! !>!E,,E,,/[B,,E,]E,,/[B,,E,]/E,,/ | %26
!f!!f!!f!!ped! !>!F,,F,,/[C,F,]F,,/[C,F,]/F,,/!ped-up!!f!!ped! !>!A,,A,,/[E,A,]A,,/[E,A,]/A,,/!ped-up! | %27
!f!!f!!f!!f!!ped! !>!D,,D,,/[A,,D,]D,,/[A,,D,]/D,,/!ped-up!!f!!ped-up!!ped! !>!E,,E,,/[B,,E,]E,,/[B,,E,]/E,,/!ped-up! | %28
!f!!f!!f!!ped! !>!F,,F,,/[C,F,]F,,/[C,F,]/F,,/!ped-up!!f!!ped! !>!A,,A,,/[E,A,]A,,/[E,A,]/A,,/!ped-up! | %29
!f! !>![D,,D,]3/2!>![D,,D,]3/2!>![D,,D,] !>![E,,E,]3/2!>![E,,E,]3/2!>![E,,E,] | %30
 !>![F,,F,]3/2!>![F,,F,]3/2!>![F,,F,] !>![A,,A,]3/2!>![A,,A,]3/2!>![A,,A,] | %31
!f! !>![D,,D,]3/2!>![D,,D,]3/2!>![D,,D,] !>![E,,E,]3/2!>![E,,E,]3/2!>![E,,E,] | %32
 !>![F,,F,]3/2!>![F,,F,]3/2!>![F,,F,] !>![A,,A,]3/2!>![A,,A,]3/2!>![A,,A,] | %33
!ped! [D,A,D]4!ped-up!!ped! [E,B,E]4!ped-up! |!ped! [F,CF]4!ped-up!!ped! [A,EA]4!ped-up! | %35
!ped! [D,A,D]4!ped-up!!ped! [E,B,E]4!ped-up! |!ped! [F,CF]4!ped-up!!ped! [A,EA]4!ped-up! | %37
!ped! D,3/2A,3/2!mf!D!mp!!ped-up!!ped! E,3/2B,3/2!mf!E!ped-up! | %38
!mp!!ped! F,3/2C3/2!mf!F!mp!!ped-up!!ped! A,3/2E3/2!mf!A!ped-up! | %39
!ped! D,D,/[A,D]D,/[A,D]/D,/!ped-up!!ped! E,E,/[B,E]E,/[B,E]/E,/!ped-up! | %40
!ped! D,D,/[A,D]D,/[A,D]/D,/!ped-up!!ped! !>![C,G,]2 z2!ped-up! | %41
[M:4/4]!f!!f!!ped! !>!D,,D,,/[A,,D,]D,,/[A,,D,]/D,,/!ped-up!!f!!ped-up!!ped! !>!E,,E,,/[B,,E,]E,,/[B,,E,]/E,,/!ped-up! | %42
!f!!f!!f!!ped! !>!F,,F,,/[C,F,]F,,/[C,F,]/F,,/!ped-up!!f!!ped! !>!A,,A,,/[E,A,]A,,/[E,A,]/A,,/!ped-up! | %43
!f!!f!!ped! !>!D,,D,,/[A,,D,]D,,/[A,,D,]/D,,/!ped-up!!f!!ped! !>!E,,E,,/[B,,E,]E,,/[B,,E,]/E,,/!ped-up! | %44
!f!!f!!f!!ped! !>!F,,F,,/[C,F,]F,,/[C,F,]/F,,/!ped-up!!f!!ped-up!!ped! !>!A,,A,,/[E,A,]A,,/[E,A,]/A,,/!ped-up! | %45
!f!!f!!f!!f!!f!!f!!ped! !>!D,,D,,/[A,,D,]D,,/[A,,D,]/D,,/!ped-up!!f!!f!!ped! !>!E,,E,,/[B,,E,]E,,/[B,,E,]/E,,/!ped-up! | %46
!f!!f!!f!!f!!f!!f!!ped! !>!F,,F,,/[C,F,]F,,/[C,F,]/F,,/!ped-up!!f!!f!!ped! !>!A,,A,,/[E,A,]A,,/[E,A,]/A,,/!ped-up! | %47
!f!!f!!ped! !>!D,,D,,/[A,,D,]D,,/[A,,D,]/D,,/!ped-up!!f!!ped! !>!E,,E,,/[B,,E,]E,,/[B,,E,]/E,,/!ped-up! | %48
!ped! [D,A,D]8!ped-up! |!ped! [E,B,E]8!ped-up! | [C,E,A,]8 |] %51

